X: 26543
T: Michel Ferry's
R: polka
M: 2/4
K: Cmajor
|:c>d cA|GE GA|cd ec|cd de|
c>d cA|GE GA|g/a/g/e/ de|1 c2 cB:|2 c2 cd||
|:eg/e/ cg|eg/e/ ca|g/a/g/e/ dc|cd de|
[1 cd eg/e/|cg ea|g/a/g/e/ de|c2 cd:|
[2 c>d cA|GE GA|g/a/g/e/ de|c2 cB||

